X:162
T: Zhigan yixin dui yiren
N: C0269
O: China,Fujian, Liancheng
S: II, 609]
N: Wenig Verzierungen.
R: Shange, Fudi shange. Biaoda aiqing]
M: 2/4
L: 1/16
K: F
c2c2c4 | G2c2G4 | G2F2F4 | C2z2
C4G2c2 | G2F2G4 | F4GFGF | F8- | F4F4 | C4z4 |
c2c2c4 | G2G2F4 | C4C4 | E2z2
C4C4 | F4G4- | G4F4 | G4G2F2 | F8- | F4F4 | C4z4

@@@ Tune index: 6163
